docs/img/promo/promo-car-star-1.svg

<svg width="298" height="298" fill="none" xmlns="http://www.w3.org/2000/svg"><path d="M152.056 81.366l20.993 25.143a22.504 22.504 0 0011.196 7.244l22.218 6.23c14.192 3.98 17.408 22.648 5.366 31.148l-16.695 11.782a22.497 22.497 0 00-8.667 12.229l-9.081 31.933c-4.007 14.09-22.518 17.315-31.055 5.411l-17.736-24.735a22.499 22.499 0 00-13.906-8.958l-20.34-4.036c-14.87-2.95-19.21-22.124-7.061-31.19l18.641-13.912a22.5 22.5 0 008.342-12.461l7.397-28.945c3.534-13.827 21.242-17.838 30.388-6.883z" stroke="#fff" stroke-opacity=".6" stroke-width="5"/><path d="M146.947 102.845l17.185 20.582a12.5 12.5 0 006.22 4.024l20.292 5.691c6.082 1.705 7.46 9.706 2.299 13.349l-15.944 11.253a12.503 12.503 0 00-4.816 6.793l-7.528 26.476c-1.718 6.039-9.651 7.421-13.309 2.319l-15.085-21.037a12.5 12.5 0 00-7.726-4.977l-19.824-3.934c-6.373-1.264-8.233-9.481-3.027-13.367l17.389-12.977a12.502 12.502 0 004.635-6.923l6.216-24.322c1.514-5.926 9.103-7.645 13.023-2.95z" stroke="#fff" stroke-opacity=".8" stroke-width="5"/><path d="M147.012 56.355l33.605 40.249a22.507 22.507 0 0011.197 7.244l39.535 11.086c14.192 3.98 17.408 22.649 5.366 31.148l-31.022 21.895a22.498 22.498 0 00-8.668 12.228l-14.716 51.751c-4.007 14.09-22.518 17.316-31.054 5.411l-29.461-41.084a22.499 22.499 0 00-13.906-8.959l-38.547-7.648c-14.869-2.951-19.21-22.124-7.06-31.191l33.856-25.267a22.496 22.496 0 008.342-12.46l12.145-47.52c3.533-13.828 21.242-17.838 30.388-6.883z" stroke="#fff" stroke-opacity=".2" stroke-width="5"/></svg>

<svg width="298" height="298" viewBox="0 0 298 298" fill="none" xmlns="http://www.w3.org/2000/svg">
<path d="M152.056 81.3661L173.049 106.509C175.963 109.999 179.867 112.525 184.245 113.753L206.463 119.983C220.655 123.963 223.871 142.631 211.829 151.131L195.134 162.913C190.932 165.879 187.873 170.195 186.467 175.142L177.386 207.075C173.379 221.165 154.868 224.39 146.331 212.486L128.595 187.751C125.266 183.108 120.294 179.905 114.689 178.793L94.3485 174.757C79.4793 171.807 75.1389 152.633 87.2878 143.567L105.929 129.655C110.052 126.578 112.997 122.18 114.271 117.194L121.668 88.2489C125.202 74.4219 142.91 70.4112 152.056 81.3661Z" stroke="white" stroke-opacity="0.6" stroke-width="5"/>
<path d="M146.947 102.845L164.132 123.427C165.751 125.366 167.92 126.769 170.352 127.451L190.644 133.142C196.726 134.847 198.104 142.848 192.943 146.491L176.999 157.744C174.665 159.391 172.965 161.789 172.183 164.537L164.655 191.013C162.937 197.052 155.004 198.434 151.346 193.332L136.261 172.295C134.411 169.715 131.649 167.936 128.535 167.318L108.711 163.384C102.338 162.12 100.478 153.903 105.684 150.017L123.073 137.04C125.364 135.33 127 132.887 127.708 130.117L133.924 105.795C135.438 99.869 143.027 98.1501 146.947 102.845Z" stroke="white" stroke-opacity="0.8" stroke-width="5"/>
<path d="M147.012 56.3546L180.617 96.6039C183.532 100.094 187.435 102.62 191.814 103.848L231.349 114.934C245.541 118.914 248.757 137.583 236.715 146.082L205.693 167.977C201.491 170.942 198.432 175.258 197.025 180.205L182.309 231.956C178.302 246.046 159.791 249.272 151.255 237.367L121.794 196.283C118.464 191.639 113.493 188.436 107.888 187.324L69.3413 179.676C54.472 176.725 50.1317 157.552 62.2805 148.485L96.1371 123.218C100.261 120.141 103.205 115.743 104.479 110.758L116.624 63.2373C120.157 49.4104 137.866 45.3996 147.012 56.3546Z" stroke="white" stroke-opacity="0.2" stroke-width="5"/>
</svg>
